svgs/thin/file-invoice.svg

<svg xmlns="http://www.w3.org/2000/svg" viewBox="0 0 384 512"><!-- Font Awesome Pro 6.0.0-alpha2 by @fontawesome - https://fontawesome.com License - https://fontawesome.com/license (Commercial License) --><path d="M72 80H152C156.406 80 160 76.406 160 72S156.406 64 152 64H72C67.594 64 64 67.594 64 72S67.594 80 72 80ZM72 144H152C156.406 144 160 140.406 160 136S156.406 128 152 128H72C67.594 128 64 131.594 64 136S67.594 144 72 144ZM374.629 150.625L233.371 9.375C227.371 3.371 219.23 0 210.746 0H64C28.652 0 0 28.652 0 64V448C0 483.344 28.652 512 64 512H320C355.348 512 384 483.344 384 448V173.254C384 164.766 380.629 156.629 374.629 150.625ZM224 22.629L361.375 160H248C234.781 160 224 149.234 224 136V22.629ZM368 448C368 474.469 346.469 496 320 496H64C37.531 496 16 474.469 16 448V64C16 37.531 37.531 16 64 16H208V136C208 158.062 225.938 176 248 176H368V448ZM312 432H232C227.594 432 224 435.594 224 440S227.594 448 232 448H312C316.406 448 320 444.406 320 440S316.406 432 312 432ZM64 240V336C64 344.836 71.164 352 80 352H304C312.836 352 320 344.836 320 336V240C320 231.164 312.836 224 304 224H80C71.164 224 64 231.164 64 240ZM304 336H80V240H304V336Z"/></svg>

<svg xmlns="http://www.w3.org/2000/svg" viewBox="0 0 384 512"><!--! Font Awesome Pro 6.3.0 by @fontawesome - https://fontawesome.com License - https://fontawesome.com/license (Commercial License) Copyright 2023 Fonticons, Inc. --><path d="M72 80h80C156.4 80 160 76.41 160 72S156.4 64 152 64h-80C67.59 64 64 67.59 64 72S67.59 80 72 80zM72 144h80C156.4 144 160 140.4 160 136S156.4 128 152 128h-80C67.59 128 64 131.6 64 136S67.59 144 72 144zM374.6 150.6l-141.3-141.3C227.4 3.371 219.2 0 210.7 0H64C28.65 0 0 28.65 0 64l.0065 384c0 35.34 28.65 64 64 64H320c35.35 0 64-28.66 64-64V173.3C384 164.8 380.6 156.6 374.6 150.6zM224 22.63L361.4 160H248C234.8 160 224 149.2 224 136V22.63zM368 448c0 26.47-21.53 48-48 48H64c-26.47 0-48-21.53-48-48V64c0-26.47 21.53-48 48-48h144v120c0 22.06 17.94 40 40 40h120V448zM312 432h-80c-4.406 0-8 3.594-8 8S227.6 448 232 448h80c4.406 0 8-3.594 8-8S316.4 432 312 432zM64 240v96C64 344.8 71.16 352 80 352h224c8.836 0 16-7.164 16-16v-96C320 231.2 312.8 224 304 224h-224C71.16 224 64 231.2 64 240zM304 336h-224v-96h224V336z"/></svg>
